X:1
T:Inglewood Cocky
M:3/4
L:1/4
K:G
 D| G3/2 F/2 G| E C E| D E C| B,2 D| B G B| A F A| G F E| D2 D/2D/2|\
 B G B| A F A| G F E| F2 D| G3/2 F/2 G| E C E| D G F| G2||
